!!!OTL: SCHOENSTER SCHATZ THU MIR ERLAUBEN
!!!ARE: Europa, Mitteleuropa, Deutschland, Westfalen
!!!SCT: E1428A
!!!YEM: Copyright 1995, estate of Helmut Schaffrath.
**kern
*ICvox
*Ivox
*M3/4
*k[]
*C:
{8G
8A
=1
4.G
8F
8F
8G
=2
4F
4E}
{8D
8G
=3
4.G
8D
8E
8D
=4
4C
4r}
{8G
8c
=5
4.B
8A
8G
8F
=6
4A
4G}
{8G
8G
=7
4.G
8B
8d
16e
16d
=8
4c
4r}
==
!!!AGN: Staende -, Soldaten - Lied, Liebe
!!!ONB: ESAC (Essen Associative Code) Database: ERK3
!!!AMT: simple triple
!!!AIN: vox
!!!EED: Helmut Schaffrath
!!!EEV: 1.0
*-
